X:1
T:Evelyn, 77.76
T:Arthur Seymour Sullivan, 1874
T:Evelyn, 77.76
T:Public Domain
C:Arthur Seymour Sullivan, 1874
Z:Public Domain
%%score ( 1 2 ) 3
L:1/8
M:4/4
K:F
V:1 treble 
V:2 treble 
V:3 bass 
V:1
 [FA]3 [FA] [FA]2 [FA]2 | [Fc]2 [FB]2 [FA]4 | [EG]3 [EG] [EG]2 [EG]2 | [EB]2 [EA]2 [EG]4 | %4
 F2 F2 [DG]2 [DG]2 | [^CA]3 [CG] [DF]4 | [DG]3 [DG] D2 [CE]2 | [EG]4 F2 |] %8
V:2
 x8 | x8 | x8 | x8 | x8 | x8 | x8 | x4 F2 |] %8
V:3
 [F,C]3 [F,C] [F,C]2 [F,C]2 | [A,C]2 [G,C]2 [F,C]4 | [C,B,]3 [C,B,] [C,B,]2 [C,B,]2 | %3
 [C,G,]2 [C,A,]2 [C,B,]4 | [D,A,]2 [D,A,]2 [B,,D,]2 [B,,D,]2 | [A,,E,]3 [A,,A,] [D,A,]4 | %6
 [B,,G,]3 [B,,G,] [G,,B,]2 [B,,B,]2 | [C,B,]4 [F,,A,]2 |] %8

